icons/mail-o.svg

<svg width="24" height="24" viewBox="0 0 24 24" xmlns="http://www.w3.org/2000/svg">
    <path fill-rule="evenodd"
        d="M4 6H20V7.46482L12.5547 12.4283C12.2188 12.6523 11.7812 12.6523 11.4453 12.4283L4 7.46482V6ZM4 9.86852V18H20V9.86852L13.6641 14.0925C12.6564 14.7642 11.3436 14.7642 10.3359 14.0925L4 9.86852ZM2 6C2 4.89543 2.89543 4 4 4H20C21.1046 4 22 4.89543 22 6V18C22 19.1046 21.1046 20 20 20H4C2.89543 20 2 19.1046 2 18V6Z" />
</svg>

<svg xmlns="http://www.w3.org/2000/svg" width="24" height="24" viewBox="0 0 24 24">
    <path
        d="M4 6h16v1.465l-7.445 4.963c-.336.224-.774.224-1.11 0L4 7.465V6zm0 3.869V18h16V9.869l-6.336 4.223c-1.008.672-2.32.672-3.328 0L4 9.87zM2 6c0-1.105.895-2 2-2h16c1.105 0 2 .895 2 2v12c0 1.105-.895 2-2 2H4c-1.105 0-2-.895-2-2V6z" />
</svg>
